dist/img/cup.svg

<svg width="150" height="100" viewBox="0 0 150 100" fill="none" xmlns="http://www.w3.org/2000/svg">
<g clip-path="url(#clip0)">
<path d="M147.618 35.4402L75.9083 0.297915C75.0993 -0.0993049 74.15 -0.0993049 73.341 0.297915L1.63121 35.4402C0.614799 35.9396 -0.0219201 36.9794 -0.00147502 38.1126C0.0189701 39.2459 0.693659 40.2623 1.7276 40.7208L36.7267 56.2913V78.407C36.7267 79.7915 37.6993 80.9831 39.0516 81.2606C59.3565 85.4431 67.9756 89.9147 71.9887 98.3381C72.4706 99.3545 73.4958 100 74.6203 100H74.6407C75.774 99.9912 76.7962 99.3282 77.2694 98.3001C81.0897 89.9556 91.8263 84.3887 110.09 81.281C111.492 81.0445 112.517 79.8294 112.517 78.407V56.2913L124.72 50.8616L128.262 61.6712C125.093 63.1053 122.882 66.2918 122.882 69.9895C122.882 71.7887 123.408 73.4622 124.308 74.8788L120.674 80.2792C119.778 81.614 120.131 83.4278 121.466 84.3244C122.777 85.2065 124.635 84.8297 125.514 83.5329L128.724 78.7604C128.724 78.7604 127.938 84.4383 127.935 84.4676C127.731 85.9396 128.931 87.5489 130.424 87.7534C131.948 87.9607 133.491 86.8538 133.71 85.2678L134.583 78.9415C134.583 78.9415 136.458 83.8484 136.464 83.86C137.016 85.3087 138.783 86.0944 140.226 85.5424C141.636 85.002 142.46 83.2292 141.908 81.7805L139.437 75.314C140.518 73.8156 141.157 71.9785 141.157 69.9924C141.157 65.7165 138.202 62.1181 134.221 61.1309L130.076 48.4783L147.516 40.7179C148.55 40.2564 149.225 39.24 149.245 38.1068C149.268 36.9794 148.632 35.9367 147.618 35.4402ZM106.69 75.9682C98.0942 77.5863 91.2217 79.7535 85.7395 82.5691C80.9904 85.0079 77.2723 87.987 74.632 91.4569C68.5452 83.2788 57.9254 79.3563 42.5623 76.0412V62.2174C42.5623 59.9451 45.7781 57.2755 50.9565 55.2456C57.2332 52.7893 65.639 51.4341 74.629 51.4341C83.6191 51.4341 92.0249 52.7893 98.3016 55.2456C103.477 57.2726 106.696 59.9451 106.696 62.2174V75.9682H106.69ZM106.69 53.0551C104.958 51.8605 102.864 50.774 100.422 49.8189C93.4853 47.1026 84.3229 45.6072 74.6232 45.6072C64.9235 45.6072 55.764 47.1026 48.8244 49.8189C46.3856 50.774 44.2885 51.8605 42.5565 53.0551V46.6528C42.5565 44.3805 45.7722 41.708 50.9507 39.6811C57.2273 37.2247 65.6332 35.8695 74.6232 35.8695C83.6132 35.8695 92.0191 37.2247 98.2957 39.6811C103.471 41.708 106.69 44.3805 106.69 46.6528V53.0551ZM132.013 66.692C132.016 66.692 132.018 66.692 132.021 66.692C132.024 66.692 132.027 66.692 132.033 66.692C133.853 66.6978 135.331 68.1757 135.331 69.9895C135.331 71.6689 133.759 73.287 132.024 73.2899C130.313 73.2899 128.718 71.7594 128.718 69.9924C128.715 68.1757 130.193 66.6978 132.013 66.692ZM112.52 49.9095V46.6528C112.52 41.711 108.223 37.3065 100.422 34.2514C93.4853 31.5351 84.3229 30.0397 74.6232 30.0397C64.9235 30.0397 55.764 31.5351 48.8244 34.2514C41.0231 37.3065 36.7267 41.711 36.7267 46.6528V49.9095L9.79758 37.9286L74.6232 6.16274L139.449 37.9315L112.52 49.9095Z" fill="#306990" stroke="#306990"/>
</g>
<defs>
<clipPath id="clip0">
<rect width="149.249" height="100" fill="white"/>
</clipPath>
</defs>
</svg>

<svg width="150" height="100" fill="none" xmlns="http://www.w3.org/2000/svg"><g clip-path="url(#clip0)"><path d="M147.618 35.44L75.908.298a2.914 2.914 0 00-2.567 0L1.631 35.44A2.918 2.918 0 000 38.113a2.91 2.91 0 001.729 2.608l34.999 15.57v22.116c0 1.385.972 2.576 2.325 2.854 20.304 4.182 28.924 8.654 32.937 17.077A2.91 2.91 0 0074.62 100h.02a2.918 2.918 0 002.63-1.7c3.82-8.344 14.556-13.911 32.82-17.019a2.913 2.913 0 002.427-2.874V56.291l12.203-5.43 3.542 10.81c-3.169 1.434-5.38 4.62-5.38 8.319 0 1.799.526 3.472 1.426 4.889l-3.634 5.4a2.917 2.917 0 00.792 4.045c1.311.883 3.169.506 4.048-.791l3.21-4.773s-.786 5.678-.789 5.708c-.204 1.472.996 3.08 2.489 3.285 1.524.208 3.067-.9 3.286-2.485l.873-6.326s1.875 4.906 1.881 4.918c.552 1.449 2.319 2.234 3.762 1.682 1.41-.54 2.234-2.313 1.682-3.761l-2.471-6.467a9.064 9.064 0 001.72-5.322c0-4.276-2.955-7.874-6.936-8.861l-4.145-12.653 17.44-7.76a2.916 2.916 0 00.102-5.278zM106.69 75.968c-8.596 1.618-15.468 3.785-20.95 6.601-4.75 2.439-8.468 5.418-11.108 8.888-6.087-8.178-16.707-12.1-32.07-15.416V62.217c0-2.272 3.216-4.941 8.395-6.971 6.276-2.457 14.682-3.812 23.672-3.812s17.396 1.355 23.673 3.812c5.175 2.027 8.394 4.7 8.394 6.971v13.751h-.006zm0-22.913c-1.732-1.194-3.826-2.281-6.268-3.236-6.937-2.716-16.1-4.212-25.799-4.212-9.7 0-18.859 1.496-25.799 4.212-2.438.955-4.535 2.041-6.267 3.236v-6.402c0-2.273 3.215-4.945 8.394-6.972 6.276-2.456 14.682-3.811 23.672-3.811s17.396 1.355 23.673 3.811c5.175 2.027 8.394 4.7 8.394 6.972v6.402zm25.323 13.637h.02a3.307 3.307 0 013.298 3.298c0 1.679-1.572 3.297-3.307 3.3-1.711 0-3.306-1.53-3.306-3.298a3.303 3.303 0 013.295-3.3zM112.52 49.91v-3.257c0-4.942-4.297-9.346-12.098-12.402-6.937-2.716-16.1-4.211-25.799-4.211-9.7 0-18.859 1.495-25.799 4.211-7.8 3.056-12.097 7.46-12.097 12.402v3.257L9.797 37.928 74.624 6.163 139.45 37.93l-26.93 11.98z" fill="#306990" stroke="#306990"/></g><defs><clipPath id="clip0"><path fill="#fff" d="M0 0h149.249v100H0z"/></clipPath></defs></svg>
